X: 30063
M: 4/4
L: 1/8
K: Am
V: 1 staves=2
E |\
^G2 A2 z2 z :: c/d/ | e2 e2 dc BA |\
e3 B c2 BA | ^G2 A2 z2 z :|
V: 2 clef=bass middle=d
a |\
a3 a a2 a2 | He2 a2 a2 a2 |\
e2 A2 z2 z :: F/G/ | c2 c2 fe e2 |
a3 e a2 d2 | e2 A2 z2 z :|


